public/images/check.svg

<svg width="19" height="15" viewBox="0 0 19 15" fill="none" xmlns="http://www.w3.org/2000/svg">
<path d="M6.81533 15C6.71242 15 6.60901 14.961 6.53034 14.8825L0.118005 8.48204C-0.0393349 8.32499 -0.0393349 8.07066 0.118005 7.91361L2.55974 5.47641C2.71708 5.31936 2.97189 5.31936 3.12923 5.47641L6.73518 9.07566C6.77921 9.11961 6.85095 9.11961 6.89548 9.07566L15.8703 0.117538C15.946 0.0419779 16.0484 0 16.1553 0C16.2621 0 16.3646 0.0424718 16.4403 0.117538L18.882 2.55474C19.0393 2.71178 19.0393 2.96612 18.882 3.12317L7.10032 14.8825C7.02165 14.961 6.91824 15 6.81533 15Z" fill="white"/>
</svg>

<svg xmlns="http://www.w3.org/2000/svg" width="19" height="15" fill="none"><path fill="#fff" d="M6.815 15a.4.4 0 0 1-.285-.117L.118 8.482a.4.4 0 0 1 0-.568L2.56 5.476a.403.403 0 0 1 .57 0l3.605 3.6a.114.114 0 0 0 .16 0L15.87.118a.403.403 0 0 1 .57 0l2.442 2.437a.4.4 0 0 1 0 .568L7.1 14.883a.4.4 0 0 1-.285.117"/></svg>
